images/milestone_4.svg

<?xml version="1.0" encoding="utf-8"?>
<!-- Generator: Adobe Illustrator 16.0.0, SVG Export Plug-In . SVG Version: 6.00 Build 0)  -->
<!DOCTYPE svg PUBLIC "-//W3C//DTD SVG 1.1//EN" "http://www.w3.org/Graphics/SVG/1.1/DTD/svg11.dtd">
<svg version="1.1" id="Layer_1" xmlns="http://www.w3.org/2000/svg" xmlns:xlink="http://www.w3.org/1999/xlink" x="0px" y="0px"
	 width="60px" height="78px" viewBox="0 0 60 78" enable-background="new 0 0 60 78" xml:space="preserve">
<g>
	<g>
		<path fill="#F47752" d="M52.586,8.563H35.775V1.726C35.775,0.772,35.011,0,34.068,0h-8.105c-0.942,0-1.707,0.772-1.707,1.726
			v6.837H7.445c-4.043,0-7.333,3.325-7.333,7.412v23.008c0,4.087,3.289,7.413,7.333,7.413h16.811v29.88
			c0,0.953,0.764,1.725,1.707,1.725h8.105c0.942,0,1.706-0.771,1.706-1.725v-29.88h16.812c4.043,0,7.333-3.326,7.333-7.412V15.974
			C59.919,11.888,56.629,8.563,52.586,8.563z M56.505,38.983c0,2.184-1.758,3.961-3.919,3.961H7.445
			c-2.162,0-3.919-1.777-3.919-3.961V15.974c0-2.185,1.757-3.961,3.919-3.961h45.141c2.161,0,3.919,1.776,3.919,3.961V38.983z
			 M27.669,3.451h4.692v5.112h-4.692V3.451z M32.361,74.549h-4.692V46.396h4.692V74.549z"/>
		<path fill="#F47752" d="M6.687,13.354c-0.449,0-0.889,0.185-1.206,0.505c-0.32,0.32-0.5,0.767-0.5,1.22
			c0,0.453,0.181,0.896,0.5,1.219c0.317,0.321,0.757,0.506,1.206,0.506c0.449,0,0.888-0.185,1.207-0.506
			c0.317-0.323,0.5-0.766,0.5-1.219c0-0.454-0.183-0.9-0.5-1.22C7.574,13.539,7.136,13.354,6.687,13.354z"/>
		<path fill="#F47752" d="M53.345,13.354c-0.449,0-0.89,0.185-1.208,0.505c-0.317,0.32-0.5,0.767-0.5,1.22
			c0,0.453,0.183,0.899,0.5,1.219c0.32,0.321,0.759,0.506,1.208,0.506c0.451,0,0.89-0.185,1.206-0.506
			c0.319-0.323,0.5-0.766,0.5-1.219c0-0.454-0.181-0.9-0.5-1.22C54.234,13.539,53.796,13.354,53.345,13.354L53.345,13.354z"/>
		<path fill="#F47752" d="M14.247,20.191h-3.695c-0.942,0-1.706,0.772-1.706,1.725V34.52c0,0.953,0.764,1.725,1.706,1.725
			c0.943,0,1.707-0.772,1.707-1.725v-2.258l3.3,3.456c0.335,0.351,0.781,0.527,1.229,0.527c0.426,0,0.854-0.161,1.185-0.484
			c0.678-0.662,0.697-1.754,0.042-2.439l-3.258-3.413c2.102-0.255,3.738-2.066,3.738-4.258v-1.168
			C18.494,22.116,16.589,20.191,14.247,20.191L14.247,20.191z M15.08,25.651c0,0.465-0.374,0.842-0.833,0.842h-1.988v-2.852h1.988
			c0.459,0,0.833,0.378,0.833,0.842V25.651z"/>
		<path fill="#F47752" d="M23.76,23.641h4.25c0.942,0,1.707-0.773,1.707-1.726c0-0.952-0.764-1.725-1.707-1.725h-4.25
			c-2.036,0-3.692,1.673-3.692,3.731v8.591c0,2.058,1.657,3.732,3.692,3.732h4.25c0.942,0,1.707-0.772,1.707-1.725
			s-0.764-1.725-1.707-1.725h-4.25c-0.153,0-0.279-0.127-0.279-0.282v-2.57h4.528c0.942,0,1.706-0.772,1.706-1.725
			c0-0.953-0.764-1.725-1.706-1.725h-4.528v-2.57C23.481,23.768,23.606,23.641,23.76,23.641z"/>
		<path fill="#F47752" d="M50.454,20.191H44.22c-0.942,0-1.708,0.772-1.708,1.725c0,0.953,0.766,1.726,1.708,1.726h1.41V34.52
			c0,0.953,0.764,1.725,1.707,1.725c0.942,0,1.706-0.772,1.706-1.725V23.641h1.411c0.942,0,1.706-0.773,1.706-1.726
			C52.16,20.963,51.396,20.191,50.454,20.191z"/>
		<path fill="#F47752" d="M39.231,20.191c-0.942,0-1.707,0.772-1.707,1.725v5.296l-3.001-6.067
			c-0.354-0.716-1.148-1.092-1.918-0.907c-0.771,0.183-1.315,0.878-1.315,1.678V34.52c0,0.953,0.765,1.725,1.707,1.725
			s1.706-0.772,1.706-1.725v-5.296l3.002,6.067c0.293,0.594,0.892,0.954,1.526,0.954c0.13,0,0.261-0.015,0.393-0.046
			c0.77-0.184,1.314-0.88,1.314-1.68V21.916C40.938,20.963,40.175,20.191,39.231,20.191L39.231,20.191z"/>
	</g>
</g>
</svg>

<svg xmlns="http://www.w3.org/2000/svg" width="59.807" height="78.001" viewBox="0 0 59.807 78.001">
  <g id="milestone_4" transform="translate(-0.112)">
    <g id="Group_1" data-name="Group 1">
      <path id="Path_1" data-name="Path 1" d="M52.586,8.563H35.775V1.726A1.716,1.716,0,0,0,34.068,0h-8.1a1.717,1.717,0,0,0-1.707,1.726V8.563H7.445A7.381,7.381,0,0,0,.112,15.975V38.983A7.382,7.382,0,0,0,7.445,46.4H24.256v29.88A1.716,1.716,0,0,0,25.963,78h8.1a1.715,1.715,0,0,0,1.706-1.725V46.4H52.586a7.382,7.382,0,0,0,7.333-7.412V15.974A7.381,7.381,0,0,0,52.586,8.563Zm3.919,30.42a3.945,3.945,0,0,1-3.919,3.961H7.445a3.944,3.944,0,0,1-3.919-3.961V15.974a3.943,3.943,0,0,1,3.919-3.961H52.586A3.944,3.944,0,0,1,56.5,15.974V38.983ZM27.669,3.451h4.692V8.563H27.669Zm4.692,71.1H27.669V46.4h4.692Z" fill="#d3ae29"/>
      <path id="Path_2" data-name="Path 2" d="M6.687,13.354a1.711,1.711,0,0,0-1.206.505,1.737,1.737,0,0,0,0,2.439,1.691,1.691,0,0,0,2.413,0,1.737,1.737,0,0,0,0-2.439A1.719,1.719,0,0,0,6.687,13.354Z" fill="#d3ae29"/>
      <path id="Path_3" data-name="Path 3" d="M53.345,13.354a1.717,1.717,0,0,0-1.208.505,1.737,1.737,0,0,0,0,2.439,1.693,1.693,0,0,0,2.414,0,1.737,1.737,0,0,0,0-2.439,1.708,1.708,0,0,0-1.206-.505Z" fill="#d3ae29"/>
      <path id="Path_4" data-name="Path 4" d="M14.247,20.191H10.552a1.716,1.716,0,0,0-1.706,1.725v12.6a1.707,1.707,0,1,0,3.413,0V32.262l3.3,3.456a1.695,1.695,0,0,0,2.414.043,1.738,1.738,0,0,0,.042-2.439l-3.258-3.413a4.28,4.28,0,0,0,3.738-4.258V24.483a4.276,4.276,0,0,0-4.248-4.292Zm.833,5.46a.838.838,0,0,1-.833.842H12.259V23.641h1.988a.839.839,0,0,1,.833.842Z" fill="#d3ae29"/>
      <path id="Path_5" data-name="Path 5" d="M23.76,23.641h4.25a1.726,1.726,0,0,0,0-3.451H23.76a3.715,3.715,0,0,0-3.692,3.731v8.591a3.717,3.717,0,0,0,3.692,3.732h4.25a1.725,1.725,0,0,0,0-3.45H23.76a.282.282,0,0,1-.279-.282v-2.57h4.528a1.725,1.725,0,0,0,0-3.45H23.481v-2.57A.281.281,0,0,1,23.76,23.641Z" fill="#d3ae29"/>
      <path id="Path_6" data-name="Path 6" d="M50.454,20.191H44.22a1.726,1.726,0,0,0,0,3.451h1.41V34.52a1.707,1.707,0,1,0,3.413,0V23.641h1.411a1.725,1.725,0,0,0,0-3.45Z" fill="#d3ae29"/>
      <path id="Path_7" data-name="Path 7" d="M39.231,20.191a1.716,1.716,0,0,0-1.707,1.725v5.3l-3-6.067a1.7,1.7,0,0,0-1.918-.907,1.719,1.719,0,0,0-1.315,1.678v12.6a1.707,1.707,0,1,0,3.413,0v-5.3l3,6.067a1.7,1.7,0,0,0,1.919.908,1.723,1.723,0,0,0,1.314-1.68v-12.6a1.715,1.715,0,0,0-1.707-1.725Z" fill="#d3ae29"/>
    </g>
  </g>
</svg>
